X: 12676
T: Fat Cat, The
R: hornpipe
M: 4/4
K: Dmajor
D2FA BAfe|dABd BAFA|feed B2AF|E2DE FAAF|
D2FA BAfe|dABd BAFA|feed B2AF|EDFE D3E:|
F2AF DFAd|f2ef dBA2|"meaow?"z6 ba|f2ed B2dB|
ADFA ABBd|f2ef dBA2|"meaow!"z6 ed|1 B2AB d4:|2 B2AF D4||

